X:235
T:Andy McGann's
R:reel
N:aka The Widow's Daughter
D:Angelina Carberry & Martin Quinn: Reel Trad
Z:transcribed by Dave Marshall
M:C|
K:Edor
|: Eeed ~B3c | d~B3 dBAF | Eeed Bcde | fdef dBAF |
E~B3 d~B3 | EBBA BAFB | A2FB ABde |1 fdef dBAF :|2 fdef defg |
|: a3g fdde | fdaf dBAe | f~a3 abaf | egfe defg |
afga fdde | fdaf dBAe | f~a3 abaf |1 egfe defg :|2 egfe dBAF |
